svg/Outline/play-forward.svg

<svg viewBox="0 0 24 24" xmlns="http://www.w3.org/2000/svg" width="24" height="24"><path fill-rule="evenodd" d="M13.76 5.47c.45-.03.86.13 1.19.3q.5.27 1.2.72l4.93 3.13q.62.39 1.04.7c.27.2.56.47.72.86l.08.2c.14.47.12.98-.08 1.44a2 2 0 0 1-.72.87q-.41.3-1.04.7l-4.93 3.12q-.7.46-1.2.72c-.33.17-.74.33-1.19.3a2.1 2.1 0 0 1-1.53-.84 2.3 2.3 0 0 1-.38-1.16q-.04-.57-.03-1.4v-.99l-.37.24-4.93 3.13q-.7.46-1.2.72c-.33.17-.74.33-1.19.3a2.1 2.1 0 0 1-1.52-.84c-.28-.36-.35-.8-.39-1.16q-.04-.57-.03-1.4V8.87q0-.83.03-1.4c.04-.37.11-.8.39-1.16.36-.49.92-.8 1.52-.84.45-.03.86.13 1.19.3q.5.27 1.2.72l4.93 3.13.37.23v-.98q0-.83.03-1.4c.04-.37.11-.8.38-1.16.37-.49.92-.8 1.53-.84m-9.5 1.8a.3.3 0 0 0-.2.1l-.04.27c-.03.27-.03.65-.03 1.23v6.26c0 .58 0 .96.03 1.23q.02.24.04.26.08.1.2.11l.24-.1c.24-.13.56-.33 1.06-.64l4.93-3.13a14 14 0 0 0 1.07-.75.3.3 0 0 0 0-.22c.02.03 0-.02-.17-.15a14 14 0 0 0-.9-.6L5.56 8a16 16 0 0 0-1.3-.74m9.62 0a.3.3 0 0 0-.2.1l-.04.27c-.02.27-.02.65-.02 1.23v6.26c0 .58 0 .96.02 1.23q.03.24.05.26.07.1.19.11.03 0 .24-.1c.25-.13.57-.33 1.06-.64l4.93-3.13a14 14 0 0 0 1.08-.75.3.3 0 0 0 0-.22c.01.03 0-.02-.17-.15-.19-.15-.47-.32-.9-.6L15.17 8a16 16 0 0 0-1.3-.74" clip-rule="evenodd"/></svg>

<svg viewBox="0 0 24 24" xmlns="http://www.w3.org/2000/svg" width="24" height="24"><path fill-rule="evenodd" d="M13.76 5.47C14.21 5.44 14.62 5.6 14.95 5.77Q15.45 6.04 16.15 6.49L21.08 9.62Q21.7 10.01 22.12 10.32C22.39 10.52 22.68 10.79 22.84 11.18L22.92 11.38C23.06 11.85 23.04 12.36 22.84 12.82A2 2 0 0 1 22.12 13.69Q21.71 13.99 21.08 14.39L16.15 17.51Q15.45 17.97 14.95 18.23C14.62 18.4 14.21 18.56 13.76 18.53A2.1 2.1 0 0 1 12.23 17.69A2.3 2.3 0 0 1 11.85 16.53Q11.81 15.96 11.82 15.13L11.82 14.14L6.52 17.51Q5.82 17.97 5.32 18.23C4.99 18.4 4.58 18.56 4.13 18.53A2.1 2.1 0 0 1 2.61 17.69C2.33 17.33 2.26 16.89 2.22 16.53Q2.18 15.96 2.19 15.13L2.19 8.87Q2.19 8.04 2.22 7.47C2.26 7.1 2.33 6.67 2.61 6.31C2.97 5.82 3.53 5.51 4.13 5.47C4.58 5.44 4.99 5.6 5.32 5.77Q5.82 6.04 6.52 6.49L11.82 9.85L11.82 8.87Q11.82 8.04 11.85 7.47C11.89 7.1 11.96 6.67 12.23 6.31C12.6 5.82 13.15 5.51 13.76 5.47M4.26 7.27a.3.3 0 0 0-.2.1l-.04.27c-.03.27-.03.65-.03 1.23v6.26c0 .58 0 .96.03 1.23q.02.24.04.26.08.1.2.11l.24-.1c.24-.13.56-.33 1.06-.64l4.93-3.13a14 14 0 0 0 1.07-.75.3.3 0 0 0 0-.22c.02.03 0-.02-.17-.15a14 14 0 0 0-.9-.6L5.56 8a16 16 0 0 0-1.3-.74m9.62 0a.3.3 0 0 0-.2.1l-.04.27c-.02.27-.02.65-.02 1.23v6.26c0 .58 0 .96.02 1.23q.03.24.05.26.07.1.19.11.03 0 .24-.1c.25-.13.57-.33 1.06-.64l4.93-3.13a14 14 0 0 0 1.08-.75.3.3 0 0 0 0-.22c.01.03 0-.02-.17-.15-.19-.15-.47-.32-.9-.6L15.17 8a16 16 0 0 0-1.3-.74" clip-rule="evenodd"/></svg>
